X: 1066
T: Hicrânımı Hiç Kimseye
C: Yesârî Âsım Arsoy
O: Turkey
F: http://compmusic.upf.edu/node/140
N: saba--sarki--kapali_curcuna--hicranimi_hic--yesari_asim_arsoy
N: makam= saba
N: form= sarki
N: usul= kapali_curcuna = 10/8
M: 10/8
L: 1/16
K: C _2/4B _3/4d  
Q: 1/4=204
%%MIDI tuningsystem comma53
AB cd fe dc BA  | ed ed fe/d/ c/B/c3  | \
w:  ARANAĞME  |   | 
g/f/e/f/ g2 _7/8ag/f/ e/d/e2f  | 
w:   | 
e/d/c/B/ AB c/d/c/B/ A/G/A3  | B2 c3d2c BA  | c8-c2  | 
w:   |  Hic râ nı  |  mı   | 
cB/A/ B3e2d cd  | ed cB AA GA3  | A2 Bc2c dc/B/ c2  | 
w:  hiç  *  *  *  kim  |  se *  *  *  *  ye   |  söy *  le ye *  mem   | 
A2 Bc2c dc/B/ c2  | A2 Bc2c dc/B/ c2  | \
w:  SAZ  |  söy *  le ye *  mem    | 
A2 Bc2c dc/B/ c2  | 
w:  SAZ  | 
z2 cd2d cd/c/ d2  | d9c  | c2 de fe dc3  | \
w:  O  bir  sır  |  dır   |  kor *  ka *  rım   | 
ed cB AB cB3  | 
w:  fâş   | 
A2 Bc2c dc BA  | A2 Bc2c dc BA  | AB A(3edc(3cBAA3  | 
w:  ey *  le ye *  mem   |  SAZ  |  ey *  *  le *  *  ye *  *  mem    | 
AB cd e/f/e/d/ c/B/c3  | z2 cd2d cd/c/ d2  | \
w:  SAZ  |  O  bir  sır  | 
d9c  | 
w:  dır   | 
c2 de fe dc3  | ed cB AB cB3  | A2 Bc2c dc BA  | 
w:  kor *  ka *  rım   |  fâş   |  ey *  le ye *  mem   | 
A2 Bc2c dc BA  | AB A(3edc(3cBAA3  | \
w:  SAZ  |  ey *  *  le *  *  ye *  *  mem    | 
f4-ff/e/ =d/e/f3  | 
w:  SAZ  | 
e3f2f ef3  | z2 g_7/8a gf ef3  | f2 e=d2e2f3  | \
w:  Ah de  düş *  tüm   |  ve fâ *  sız  *  yâr   |  pey *  le ye mem   | 
f2 e=d2e2f3  | 
w:  SAZ  | 
f2 e=d2e2f3  | f8-f2  | e3f2g aa3  | ag ga2g fe3  | \
w:  pey *  le ye mem    |   |  Ah de  düş *  tüm   |  *  *  ve fâ sız  *  yâr   | 
e2 de2f2e dc  | 
w:  pey *  le ye mem   | 
e2 de2f2e dc  | c2 de fe/d/ c/B/c3  | c8-c2  | \
w:  SAZ  |  pey *  le *  ye *  *  *  mem    |   | 
AB cd e/f/e/d/ c/B/c3  | 
w:  SAZ  | 
c3d2d cd cd  | d9c  | c2 de fe dc3  | ed cB AB AB3  | 
w:  Sır rı  aş  |  kı   |  kor *  ka *  rım   |  fâş   | 
A2 Bc2c dc BA  | A2 Bc2c dc BA  | AB A(3edc(3cBAA3  | 
w:  ey *  le ye *  mem   |  SAZ  |  ey *  *  le *  *  ye *  *  mem    | 
A8-A2  | |


